X: 1211
T: Albert Hall Polka Mazurka
B: australian traditional tunes wiki
M:3/4
L:1/8
R: Polka Mazurka
Q: 1/4=100
K:D
V:1 
A2||"D"fed2A2|BAF2A2|AB ce cB|"A7"A4c2|ecB2A2|BAG2A2|ABc2e2|"D"d4(3FGA||
"G"B2G2(3BAG|"D"A2F2(3GAB|"C"=c2c2 (3cBA|"G"G4(3FGA|B2G2(3BAG|"D"A2F2(3GAB|"C"=c2F2 "D7"(3DEF|"G"G4z2||
% abcbook-tune_id 6342d53af1279c8e6adb019b


% abcbook-boost 0
% abcbook-tablature 
% abcbook-transpose 
% abcbook-lastupdated 1665324354416
% abcbook-soundfonts 
% abcbook-repeats 1
% NFF Book 2013

